src/actions/symbolic/ephy-permission-camera-symbolic.svg

<svg width="16px" height="16px" version="1.1" viewBox="0 0 16 16" xmlns="http://www.w3.org/2000/svg">
 <path d="m6 3c-1.108 0-2 0.892-2 2v6c0 1.108 0.892 2 2 2h8c1.108 0 2-0.892 2-2v-6c0-1.108-0.892-2-2-2h-8zm0 1h8c0.554 0 1 0.446 1 1v6c0 0.554-0.446 1-1 1h-8c-0.554 0-1-0.446-1-1v-6c0-0.554 0.446-1 1-1z" fill="#363636" stop-color="#000000" stroke-linecap="round" stroke-linejoin="round" stroke-width="3" style="paint-order:fill markers stroke"/>
 <path d="m0 4v8h1.207l3.793-3.793v-0.41406l-3.793-3.793h-1.207zm1 1.207 2.793 2.793-2.793 2.793v-5.5859z" color="#000000" fill="#363636" style="-inkscape-stroke:none"/>
 <rect x="13" y="5" width="1" height="1" fill="#363636" stop-color="#000000" stroke-linecap="round" stroke-linejoin="round" stroke-width="3" style="paint-order:fill markers stroke"/>
</svg>

<svg xmlns="http://www.w3.org/2000/svg" width="16" height="16">
    <path fill="#050505" fill-opacity=".7" d="M6 3c-1.108 0-2 .892-2 2v6c0 1.108.892 2 2 2h8c1.108 0 2-.892 2-2V5c0-1.108-.892-2-2-2H6zm0 1h8c.554 0 1 .446 1 1v6c0 .554-.446 1-1 1H6c-.554 0-1-.446-1-1V5c0-.554.446-1 1-1z" style="paint-order:fill markers stroke"/>
    <path fill="#050505" d="M0 4v8h1.207L5 8.207v-.414L1.207 4H0zm1 1.207L3.793 8 1 10.793V5.207z" color="#000" opacity=".7" style="-inkscape-stroke:none"/>
    <path fill="#050505" fill-opacity=".7" d="M13 5h1v1h-1z" style="paint-order:fill markers stroke"/>
</svg>
